X:27
T:Crisis in Female Sex Hormones
R:reel
C: 1978, 2010 L.E. McCullough 
M:4/4
L:1/8
K:Em
|:~E3B AFED|E~F3 FEDF|~E3B AFEF|AFED ~E3D|
~E3B AFED|E~F3 ~A3B|d~e3 ~f3a|1 fedB ~e3D:|2 fedB ~e3e|]
|:fedB AFEF|A~F3 d~F3|~f3e f~a3|bafd ~e3d|
fedB A~F3|DEFE F~A3|Bdef edBA|1 FABA F~E3:|2 FABA FEED|]
 

